tipitek/img/Chat.svg

<svg width="32" height="32" viewBox="0 0 32 32" fill="none" xmlns="http://www.w3.org/2000/svg">
<path fill-rule="evenodd" clip-rule="evenodd" d="M15.6672 1.33374C19.4979 1.33374 23.0979 2.82307 25.8019 5.52841C31.3912 11.1177 31.3912 20.2111 25.8019 25.8004C23.0618 28.5417 19.3725 29.9924 15.6352 29.9924C13.5979 29.9924 11.5472 29.5617 9.62852 28.6737C9.06319 28.4471 8.53385 28.2337 8.15385 28.2337C7.71652 28.2364 7.12852 28.4391 6.56052 28.6351C5.39519 29.0351 3.94452 29.5337 2.87119 28.4644C1.80185 27.3937 2.29519 25.9471 2.69252 24.7831C2.88852 24.2097 3.08985 23.6177 3.08985 23.1697C3.08985 22.8017 2.91252 22.3324 2.64052 21.6564C0.143187 16.2631 1.29785 9.76307 5.53385 5.52974C8.23785 2.82441 11.8365 1.33374 15.6672 1.33374ZM15.6685 3.33374C12.3712 3.33374 9.27385 4.61641 6.94719 6.94441C3.30185 10.5871 2.30985 16.1804 4.47652 20.8644C4.78852 21.6364 5.08985 22.3884 5.08985 23.1697C5.08985 23.9497 4.82185 24.7351 4.58585 25.4284C4.39119 25.9991 4.09652 26.8604 4.28585 27.0497C4.47119 27.2417 5.33785 26.9391 5.90985 26.7431C6.59652 26.5084 7.37519 26.2391 8.14719 26.2337C8.92052 26.2337 9.64985 26.5271 10.4219 26.8377C15.1512 29.0244 20.7445 28.0297 24.3885 24.3871C29.1965 19.5764 29.1965 11.7511 24.3885 6.94307C22.0605 4.61507 18.9645 3.33374 15.6685 3.33374ZM20.9311 14.884C21.6671 14.884 22.2644 15.48 22.2644 16.2173C22.2644 16.9547 21.6671 17.5507 20.9311 17.5507C20.1951 17.5507 19.5924 16.9547 19.5924 16.2173C19.5924 15.48 20.1831 14.884 20.9191 14.884H20.9311ZM15.586 14.884C16.322 14.884 16.9193 15.48 16.9193 16.2173C16.9193 16.9547 16.322 17.5507 15.586 17.5507C14.85 17.5507 14.2473 16.9547 14.2473 16.2173C14.2473 15.48 14.8367 14.884 15.574 14.884H15.586ZM10.2404 14.884C10.9764 14.884 11.5737 15.48 11.5737 16.2173C11.5737 16.9547 10.9764 17.5507 10.2404 17.5507C9.50439 17.5507 8.90172 16.9547 8.90172 16.2173C8.90172 15.48 9.49239 14.884 10.2284 14.884H10.2404Z" fill="#30CBFF"/>
</svg>

<svg width="32" height="32" fill="none" xmlns="http://www.w3.org/2000/svg"><path fill-rule="evenodd" clip-rule="evenodd" d="M15.667 1.334c3.83 0 7.43 1.49 10.135 4.194 5.59 5.59 5.59 14.683 0 20.272-2.74 2.742-6.43 4.192-10.167 4.192-2.037 0-4.088-.43-6.006-1.318-.566-.227-1.095-.44-1.475-.44-.437.002-1.025.205-1.593.401-1.166.4-2.616.899-3.69-.17-1.07-1.071-.576-2.518-.178-3.682.196-.573.397-1.165.397-1.613 0-.368-.177-.838-.45-1.514C.144 16.263 1.299 9.763 5.535 5.53a14.232 14.232 0 0 1 10.133-4.196zm.002 2a12.248 12.248 0 0 0-8.722 3.61c-3.645 3.643-4.637 9.236-2.47 13.92.312.772.613 1.524.613 2.306 0 .78-.268 1.565-.504 2.258-.195.571-.49 1.432-.3 1.622.185.192 1.052-.11 1.624-.307.687-.235 1.465-.504 2.237-.51.774 0 1.503.294 2.275.605 4.73 2.186 10.322 1.192 13.966-2.45 4.808-4.812 4.808-12.637 0-17.445a12.248 12.248 0 0 0-8.72-3.61zm5.262 11.55a1.333 1.333 0 1 1 0 2.667 1.338 1.338 0 0 1-1.339-1.334c0-.737.591-1.333 1.327-1.333h.012zm-5.345 0a1.333 1.333 0 1 1 0 2.667 1.338 1.338 0 0 1-1.339-1.334c0-.737.59-1.333 1.327-1.333h.012zm-5.346 0a1.333 1.333 0 1 1 0 2.667 1.338 1.338 0 0 1-1.338-1.334c0-.737.59-1.333 1.326-1.333h.012z" fill="#30CBFF"/></svg>
